X: 1366
T: Cunningham Schottische
B: australian traditional tunes wiki
M:4/4
L:1/8
R: Schottische
Q: 1/4=100
K:G
V:1 
"G"g>f a>gd2B2|"C"B<A G>c "Am"E4|"D7"F2f>e c2A2|"G"A>G G>B"D7"D4|
"G"g>f a<gd2B2|"C"B<A G>c "Am"E4|"D7"F2f>e c2A2|A<G B<d"G"G4||
"D"A>A B>cd2e<f|"A"a>g f<g "Em"B4|"D"A>A B>A "Bm"f2f2|"D"A>A B>A"Bm"f2f2|
"D"A>A B>cd2e<f|"G"g2b2b2g>e|"A"c4-c>B (3ABc|"D"d2"G"f2"D"d4||
% abcbook-tune_id 6342d53a7c02a06c1cd870b2


% abcbook-boost 0
% abcbook-tablature 
% abcbook-transpose 
% abcbook-lastupdated 1665324361358
% abcbook-soundfonts 
% abcbook-repeats 1
% NFF Book 2017

